icons/Finance/stock-fill.svg

<svg viewBox="0 0 24 24" xmlns="http://www.w3.org/2000/svg"><path d="M8.00488 5.00293H11.0049V14.0029H8.00488V17.0029H6.00488V14.0029H3.00488V5.00293H6.00488V2.00293H8.00488V5.00293ZM18.0049 10.0029H21.0049V19.0029H18.0049V22.0029H16.0049V19.0029H13.0049V10.0029H16.0049V7.00293H18.0049V10.0029Z"/></svg>

<svg xmlns="http://www.w3.org/2000/svg" viewBox="0 0 24 24">
    <g>
        <path fill="none" d="M0 0h24v24H0z"/>
        <path d="M8 5h3v9H8v3H6v-3H3V5h3V2h2v3zm10 5h3v9h-3v3h-2v-3h-3v-9h3V7h2v3z"/>
    </g>
</svg>
